Newaita-dark/actions/22/document-edit-sign-encrypt.svg

<?xml version="1.0" encoding="UTF-8"?>
<svg xmlns="http://www.w3.org/2000/svg" xmlns:xlink="http://www.w3.org/1999/xlink" width="22pt" height="22pt" viewBox="0 0 22 22" version="1.1">
<g id="surface1">
<path style=" stroke:none;fill-rule:nonzero;fill:rgb(14.901961%,65.098041%,60.392159%);fill-opacity:1;" d="M 15.671875 12.453125 C 14.546875 12.453125 13.644531 13.261719 13.644531 14.269531 L 13.644531 15.636719 L 12.933594 15.636719 C 12.570312 15.636719 12.28125 15.929688 12.28125 16.296875 L 12.28125 19.519531 C 12.28125 19.875 12.554688 20.164062 12.902344 20.183594 C 12.914062 20.183594 12.921875 20.183594 12.933594 20.183594 L 18.445312 20.183594 C 18.457031 20.183594 18.46875 20.183594 18.480469 20.183594 C 18.828125 20.164062 19.101562 19.875 19.101562 19.519531 L 19.101562 16.296875 C 19.101562 16.148438 19.054688 16.011719 18.972656 15.902344 C 18.964844 15.890625 18.957031 15.882812 18.953125 15.875 C 18.933594 15.851562 18.910156 15.828125 18.886719 15.808594 C 18.777344 15.707031 18.636719 15.644531 18.480469 15.636719 C 18.46875 15.636719 18.457031 15.636719 18.445312 15.636719 L 17.738281 15.636719 L 17.738281 14.269531 C 17.738281 13.261719 16.832031 12.453125 15.710938 12.453125 Z M 15.691406 13.816406 C 16.070312 13.816406 16.371094 14.019531 16.371094 14.269531 L 16.371094 15.636719 L 15.007812 15.636719 L 15.007812 14.269531 C 15.007812 14.019531 15.3125 13.816406 15.691406 13.816406 Z M 13.644531 17 L 17.738281 17 L 17.738281 18.820312 L 13.644531 18.820312 Z M 13.644531 17 "/>
<path style=" stroke:none;fill-rule:nonzero;fill:rgb(74.117649%,74.117649%,74.117649%);fill-opacity:1;" d="M 4.546875 11.085938 L 6.367188 11.085938 L 6.367188 12.90625 L 4.546875 12.90625 Z M 4.546875 11.085938 "/>
<path style=" stroke:none;fill-rule:nonzero;fill:rgb(74.117649%,74.117649%,74.117649%);fill-opacity:1;" d="M 8.1875 11.085938 L 10.003906 11.085938 L 10.003906 12.90625 L 8.1875 12.90625 Z M 8.1875 11.085938 "/>
<path style=" stroke:none;fill-rule:nonzero;fill:rgb(74.117649%,74.117649%,74.117649%);fill-opacity:1;" d="M 6.367188 12.90625 L 8.1875 12.90625 L 8.1875 14.726562 L 6.367188 14.726562 Z M 6.367188 12.90625 "/>
<path style=" stroke:none;fill-rule:nonzero;fill:rgb(74.117649%,74.117649%,74.117649%);fill-opacity:1;" d="M 4.546875 14.726562 L 6.367188 14.726562 L 6.367188 16.542969 L 4.546875 16.542969 Z M 4.546875 14.726562 "/>
<path style=" stroke:none;fill-rule:nonzero;fill:rgb(74.117649%,74.117649%,74.117649%);fill-opacity:1;" d="M 8.1875 14.726562 L 10.003906 14.726562 L 10.003906 16.542969 L 8.1875 16.542969 Z M 8.1875 14.726562 "/>
<path style=" stroke:none;fill-rule:nonzero;fill:rgb(74.117649%,74.117649%,74.117649%);fill-opacity:1;" d="M 6.367188 16.542969 L 8.1875 16.542969 L 8.1875 18.363281 L 6.367188 18.363281 Z M 6.367188 16.542969 "/>
<path style=" stroke:none;fill-rule:nonzero;fill:rgb(74.117649%,74.117649%,74.117649%);fill-opacity:1;" d="M 4.546875 18.363281 L 6.367188 18.363281 L 6.367188 20.183594 L 4.546875 20.183594 Z M 4.546875 18.363281 "/>
<path style=" stroke:none;fill-rule:nonzero;fill:rgb(74.117649%,74.117649%,74.117649%);fill-opacity:1;" d="M 8.1875 18.363281 L 10.003906 18.363281 L 10.003906 20.183594 L 8.1875 20.183594 Z M 8.1875 18.363281 "/>
<path style=" stroke:none;fill-rule:nonzero;fill:rgb(74.117649%,74.117649%,74.117649%);fill-opacity:1;" d="M 2.730469 12.90625 L 4.546875 12.90625 L 4.546875 14.726562 L 2.730469 14.726562 Z M 2.730469 12.90625 "/>
<path style=" stroke:none;fill-rule:nonzero;fill:rgb(74.117649%,74.117649%,74.117649%);fill-opacity:1;" d="M 2.730469 16.542969 L 4.546875 16.542969 L 4.546875 18.363281 L 2.730469 18.363281 Z M 2.730469 16.542969 "/>
<path style=" stroke:none;fill-rule:nonzero;fill:rgb(74.117649%,74.117649%,74.117649%);fill-opacity:1;" d="M 4.09375 1.082031 C 3.335938 1.082031 2.730469 1.691406 2.730469 2.445312 L 2.730469 11.085938 L 4.09375 11.085938 L 4.09375 3.355469 C 4.09375 2.851562 4.5 2.445312 5.003906 2.445312 L 16.828125 2.445312 C 17.332031 2.445312 17.738281 2.851562 17.738281 3.355469 L 17.738281 11.085938 L 19.101562 11.085938 L 19.101562 2.445312 C 19.101562 1.691406 18.492188 1.082031 17.738281 1.082031 Z M 4.09375 1.082031 "/>
<path style=" stroke:none;fill-rule:nonzero;fill:rgb(74.117649%,74.117649%,74.117649%);fill-opacity:1;" d="M 10.003906 12.90625 L 11.824219 12.90625 L 11.824219 14.726562 L 10.003906 14.726562 Z M 10.003906 12.90625 "/>
</g>
</svg>

<svg xmlns="http://www.w3.org/2000/svg" width="22pt" height="22pt" viewBox="0 0 22 22"><path d="M15.672 12.453c-1.125 0-2.027.809-2.027 1.817v1.367h-.711a.653.653 0 0 0-.653.66v3.223a.66.66 0 0 0 .621.664h5.578a.66.66 0 0 0 .622-.664v-3.223a.654.654 0 0 0-.13-.395l-.019-.027a.533.533 0 0 0-.066-.066.64.64 0 0 0-.407-.172h-.742V14.27c0-1.008-.906-1.817-2.027-1.817zm.02 1.363c.378 0 .68.204.68.454v1.367h-1.364V14.27c0-.25.305-.454.683-.454zM13.644 17h4.093v1.82h-4.093zm0 0" fill="#26a69a"/><path d="M4.547 11.086h1.82v1.82h-1.82zm0 0M8.188 11.086h1.816v1.82H8.188zm0 0M6.367 12.906h1.82v1.82h-1.82zm0 0M4.547 14.727h1.82v1.816h-1.82zm0 0M8.188 14.727h1.816v1.816H8.188zm0 0M6.367 16.543h1.82v1.82h-1.82zm0 0M4.547 18.363h1.82v1.82h-1.82zm0 0M8.188 18.363h1.816v1.82H8.188zm0 0M2.73 12.906h1.817v1.82H2.73zm0 0M2.73 16.543h1.817v1.82H2.73zm0 0M4.094 1.082A1.36 1.36 0 0 0 2.73 2.445v8.64h1.364v-7.73c0-.503.406-.91.91-.91h11.824c.504 0 .91.407.91.91v7.73h1.364v-8.64c0-.754-.61-1.363-1.364-1.363zm0 0M10.004 12.906h1.82v1.82h-1.82zm0 0" fill="#bdbdbd"/></svg>
